public/images/file-maker/feature5.svg

<svg width="64" height="64" viewBox="0 0 64 64" fill="none" xmlns="http://www.w3.org/2000/svg">
<g clip-path="url(#clip0)">
<path fill-rule="evenodd" clip-rule="evenodd" d="M28 3.99999C28 5.73814 29.1148 7.22119 30.6669 7.77153V15.0515C31.1068 15.0174 31.5514 15 32 15C32.4488 15 32.8935 15.0174 33.3336 15.0515V7.77137C34.8854 7.2209 36 5.73797 36 3.99999C36 1.79466 34.2053 -7.62939e-06 32 -7.62939e-06C29.7947 -7.62939e-06 28 1.79466 28 3.99999ZM44.9262 20.9581C44.3477 20.2815 43.7171 19.6509 43.0405 19.0725L48.189 13.924C47.4809 12.437 47.7415 10.6 48.9708 9.37072C50.5282 7.81071 53.0695 7.81071 54.6268 9.37072C56.1868 10.9307 56.1868 13.4694 54.6268 15.0294C53.8455 15.8081 52.8242 16.1974 51.8002 16.1974C51.2097 16.1974 50.6192 16.0679 50.0752 15.809L44.9262 20.9581ZM48.9485 33.3334C48.9826 32.8934 49 32.4487 49 32C49 31.5513 48.9826 31.1067 48.9485 30.6667H56.2285C56.7789 29.1147 58.2619 28 60 28C62.2053 28 64 29.7947 64 32C64 34.2053 62.2053 36 60 36C58.262 36 56.779 34.8853 56.2286 33.3334H48.9485ZM43.0362 44.9311C43.713 44.353 44.3438 43.7226 44.9225 43.0462L50.0693 48.1931C51.5553 47.4837 53.394 47.7442 54.6268 48.9707C56.1868 50.5307 56.1868 53.0694 54.6268 54.6294C53.8482 55.4081 52.8242 55.7974 51.8002 55.7974C50.7762 55.7974 49.7495 55.4081 48.9708 54.6294C47.743 53.4016 47.4816 51.5675 48.1865 50.0815L43.0362 44.9311ZM30.6669 48.9485C31.1068 48.9826 31.5514 49 32 49C32.4488 49 32.8935 48.9826 33.3336 48.9485V56.2286C34.8854 56.7791 36 58.262 36 60C36 62.2053 34.2053 64 32 64C29.7947 64 28 62.2053 28 60C28 58.2618 29.1148 56.7788 30.6669 56.2285V48.9485ZM19.0691 43.0365C19.6473 43.7133 20.2777 44.3441 20.9541 44.9228L15.8059 50.071C16.517 51.5588 16.2573 53.3987 15.0266 54.6294C14.2506 55.4081 13.2239 55.7974 12.1999 55.7974C11.1759 55.7974 10.1492 55.4081 9.37055 54.6294C7.81055 53.0694 7.81055 50.5307 9.37055 48.9707C10.5967 47.7446 12.4294 47.4855 13.9162 48.1895L19.0691 43.0365ZM15.0515 30.6667C15.0174 31.1067 15 31.5513 15 32C15 32.4487 15.0174 32.8934 15.0515 33.3334H7.77144C7.22102 34.8853 5.73804 36 4 36C1.79467 36 0 34.2053 0 32C0 29.7947 1.79467 28 4 28C5.73808 28 7.22108 29.1147 7.77148 30.6667H15.0515ZM20.9581 19.0738C20.2815 19.6523 19.651 20.2829 19.0726 20.9595L13.9237 15.8106C13.3802 16.0682 12.7898 16.1973 12.2002 16.1973C11.1762 16.1973 10.1522 15.808 9.3709 15.0293C7.81357 13.4693 7.81357 10.9333 9.37357 9.37329C10.9309 7.81329 13.4722 7.81329 15.0296 9.37329C16.259 10.6027 16.5195 12.4399 15.8112 13.9269L20.9581 19.0738ZM30.6667 3.99999C30.6667 3.26399 31.2667 2.66666 32 2.66666C32.7333 2.66666 33.3333 3.26399 33.3333 3.99999C33.3333 4.73599 32.7333 5.33333 32 5.33333C31.2667 5.33333 30.6667 4.73599 30.6667 3.99999ZM30.6667 60C30.6667 59.264 31.2667 58.6667 32 58.6667C32.7333 58.6667 33.3333 59.264 33.3333 60C33.3333 60.736 32.7333 61.3333 32 61.3333C31.2667 61.3333 30.6667 60.736 30.6667 60ZM4 30.6667C3.26667 30.6667 2.66667 31.264 2.66667 32C2.66667 32.736 3.26667 33.3333 4 33.3333C4.73333 33.3333 5.33333 32.736 5.33333 32C5.33333 31.264 4.73333 30.6667 4 30.6667ZM58.6667 32C58.6667 31.264 59.2667 30.6667 60 30.6667C60.7333 30.6667 61.3333 31.264 61.3333 32C61.3333 32.736 60.7333 33.3333 60 33.3333C59.2667 33.3333 58.6667 32.736 58.6667 32ZM51.8002 10.8694C51.4588 10.8694 51.1175 10.9974 50.8562 11.2587C50.3362 11.7787 50.3362 12.624 50.8562 13.1467C51.3762 13.664 52.2215 13.664 52.7415 13.1467C53.2615 12.6267 53.2615 11.7787 52.7415 11.2587C52.4828 10.9974 52.1415 10.8694 51.8002 10.8694ZM11.2559 50.8561C11.5172 50.5974 11.8585 50.4667 12.1999 50.4667C12.5412 50.4667 12.8825 50.5974 13.1412 50.8534C13.6612 51.3761 13.6612 52.2214 13.1412 52.7414C12.6212 53.2614 11.7759 53.2614 11.2559 52.7414C10.7359 52.2214 10.7359 51.3761 11.2559 50.8561ZM12.2002 10.8693C11.8589 10.8693 11.5176 10.9973 11.2562 11.2586C10.7362 11.7786 10.7362 12.624 11.2562 13.1466C11.7762 13.664 12.6216 13.6666 13.1416 13.1466C13.6616 12.6266 13.6616 11.7813 13.1416 11.2613C12.8829 10.9973 12.5416 10.8693 12.2002 10.8693ZM50.8562 50.8561C51.1175 50.5974 51.4588 50.4667 51.8002 50.4667C52.1415 50.4667 52.4828 50.5974 52.7415 50.8534C53.2615 51.3761 53.2615 52.2214 52.7415 52.7414C52.2215 53.2614 51.3762 53.2614 50.8562 52.7414C50.3362 52.2214 50.3362 51.3761 50.8562 50.8561Z" fill="#7F8284"/>
<path fill-rule="evenodd" clip-rule="evenodd" d="M24.398 21.5412C24.6235 21.0828 25.1588 20.8788 25.6252 21.0736L39.5882 26.9043C40.0361 27.0913 40.2777 27.5874 40.1524 28.0628L38.4361 34.5747L44.4082 37.11C44.7483 37.2544 44.9775 37.5835 44.9984 37.9575C45.0194 38.3316 44.8284 38.6849 44.5065 38.8676L35.6826 43.8758C35.3922 44.0406 35.0388 44.0415 34.7477 43.8781L22.9025 37.2317C22.6831 37.1086 22.5196 36.9035 22.4466 36.6598L19.0417 25.2861C18.9316 24.9183 19.0436 24.519 19.3279 24.2655C19.6123 24.0119 20.0164 23.9511 20.3608 24.1099L25.1316 26.3097C25.1959 26.0931 25.3332 25.9027 25.524 25.7751C25.7946 25.594 26.1366 25.5634 26.4342 25.6936L30.6064 27.519C30.9597 27.6736 31.1886 28.0271 31.1886 28.418V28.9159L33.3158 29.9169C33.5972 30.0494 33.7986 30.3114 33.857 30.621L35.3692 38.6464L38.0729 28.3877L25.7206 23.2296L25.1576 24.374L23.435 23.4986L24.398 21.5412ZM33.8811 41.156L32.0583 31.4823L29.821 30.4295C29.4806 30.2693 29.2627 29.9226 29.2627 29.5413V29.0622L26.9831 28.0649C26.9216 28.2959 26.7779 28.4993 26.5751 28.6322C26.3 28.8124 25.9536 28.8382 25.6556 28.7008L21.504 26.7865L24.1754 35.7101L33.8811 41.156ZM36.7328 41.0378L41.838 38.1402L37.9333 36.4826L36.7328 41.0378Z" fill="#FF6B00"/>
</g>
<defs>
<clipPath id="clip0">
<rect width="64" height="64" fill="white"/>
</clipPath>
</defs>
</svg>

<svg xmlns="http://www.w3.org/2000/svg" width="64" height="64" fill="none" xmlns:v="https://vecta.io/nano"><g clip-path="url(#A)" fill-rule="evenodd"><path d="M28 4c0 1.738 1.115 3.221 2.667 3.772v7.28L32 15l1.334.052v-7.28C34.885 7.221 36 5.738 36 4c0-2.205-1.795-4-4-4s-4 1.795-4 4zm16.926 16.958c-.578-.677-1.209-1.307-1.886-1.886l5.148-5.149a4.01 4.01 0 0 1 .782-4.553c1.557-1.56 4.099-1.56 5.656 0s1.56 4.099 0 5.659a3.99 3.99 0 0 1-2.827 1.168c-.59 0-1.181-.129-1.725-.388l-5.149 5.149zm4.022 12.375L49 32l-.051-1.333h7.28C56.779 29.115 58.262 28 60 28c2.205 0 4 1.795 4 4s-1.795 4-4 4c-1.738 0-3.221-1.115-3.771-2.667h-7.28zm-5.912 11.598c.677-.578 1.308-1.209 1.886-1.885l5.147 5.147c1.486-.709 3.325-.449 4.558.778 1.56 1.56 1.56 4.099 0 5.659-.779.779-1.803 1.168-2.827 1.168a3.99 3.99 0 0 1-2.829-1.168 4.01 4.01 0 0 1-.784-4.548l-5.15-5.15zm-12.369 4.017L32 49l1.334-.051v7.28C34.885 56.779 36 58.262 36 60c0 2.205-1.795 4-4 4s-4-1.795-4-4c0-1.738 1.115-3.221 2.667-3.772v-7.28zm-11.598-5.912c.578.677 1.209 1.308 1.885 1.886l-5.148 5.148a4.01 4.01 0 0 1-.779 4.558 3.98 3.98 0 0 1-2.827 1.168 3.99 3.99 0 0 1-2.829-1.168c-1.56-1.56-1.56-4.099 0-5.659 1.226-1.226 3.059-1.485 4.546-.781l5.153-5.153zm-4.018-12.37L15 32l.052 1.333h-7.28C7.221 34.885 5.738 36 4 36c-2.205 0-4-1.795-4-4s1.795-4 4-4c1.738 0 3.221 1.115 3.771 2.667h7.28zm5.907-11.593c-.677.579-1.307 1.209-1.886 1.886l-5.149-5.149c-.543.258-1.134.387-1.723.387-1.024 0-2.048-.389-2.829-1.168-1.557-1.56-1.557-4.096.003-5.656s4.099-1.56 5.656 0a4.01 4.01 0 0 1 .782 4.554l5.147 5.147zM30.667 4c0-.736.6-1.333 1.333-1.333s1.333.597 1.333 1.333-.6 1.333-1.333 1.333S30.667 4.736 30.667 4zm0 56c0-.736.6-1.333 1.333-1.333s1.333.597 1.333 1.333-.6 1.333-1.333 1.333-1.333-.597-1.333-1.333zM4 30.667c-.733 0-1.333.597-1.333 1.333s.6 1.333 1.333 1.333S5.333 32.736 5.333 32s-.6-1.333-1.333-1.333zM58.667 32c0-.736.6-1.333 1.333-1.333s1.333.597 1.333 1.333-.6 1.333-1.333 1.333-1.333-.597-1.333-1.333zM51.8 10.869a1.33 1.33 0 0 0-.944.389 1.34 1.34 0 0 0 0 1.888 1.34 1.34 0 0 0 1.885 0 1.34 1.34 0 0 0 0-1.888c-.259-.261-.6-.389-.941-.389zM11.256 50.856a1.34 1.34 0 0 1 .944-.389c.341 0 .683.131.941.387a1.34 1.34 0 0 1 0 1.888c-.52.52-1.365.52-1.885 0s-.52-1.365 0-1.885zm.944-39.987a1.33 1.33 0 0 0-.944.389 1.34 1.34 0 0 0 0 1.888c.52.517 1.365.52 1.885 0s.52-1.365 0-1.885a1.31 1.31 0 0 0-.941-.392zm38.656 39.987a1.34 1.34 0 0 1 .944-.389c.341 0 .683.131.941.387a1.34 1.34 0 0 1 0 1.888c-.52.52-1.365.52-1.885 0s-.52-1.365 0-1.885z" fill="#7f8284"/><path d="M24.398 21.541c.226-.458.761-.662 1.227-.468l13.963 5.831c.448.187.69.683.564 1.159l-1.716 6.512 5.972 2.535a.98.98 0 0 1 .59.848c.021.374-.17.727-.492.91l-8.824 5.008a.95.95 0 0 1-.935.002l-11.845-6.646c-.219-.123-.383-.328-.456-.572l-3.405-11.374a.99.99 0 0 1 .286-1.021.95.95 0 0 1 1.033-.156l4.771 2.2c.064-.217.202-.407.392-.535a.95.95 0 0 1 .91-.081l4.172 1.825a.98.98 0 0 1 .582.899v.498l2.127 1.001c.281.133.483.395.541.704l1.512 8.025 2.704-10.259-12.352-5.158-.563 1.144-1.723-.875.963-1.957zm9.483 19.615l-1.823-9.674-2.237-1.053a.98.98 0 0 1-.558-.888v-.479l-2.28-.997a.98.98 0 0 1-.408.567.95.95 0 0 1-.919.069l-4.152-1.914 2.671 8.924 9.706 5.446zm2.852-.118l5.105-2.898-3.905-1.658-1.201 4.555z" fill="#ff6b00"/></g><defs><clipPath id="A"><path fill="#fff" d="M0 0h64v64H0z"/></clipPath></defs></svg>
